X: 1
T:Green Mountain
M:4/4
L:1/8
Q:175
R:Reel
K:D
|: dB| AF ~F2 EF ~F2|DF ~F2 ABde|f2 df (3efe dB|Adfd efdB|AF ~F2 EF ~F2|DF ~F2 ABde|fedf (3efe dB| AFEF D :|
|: de|fa ~a2 bfaf|defd ~e2 de|~f2 df ~e2 dB| Adfd efde| fa ~a2 bfaf| defd ~e2 de|fedf ~e2 dB|AFEF D :|
